X:7
T:Laird of Drumblair, The
M:4/4
L:1/8
C:J. Scott Skinner
R:Strathspey
K:A
"E7"E2|"A"A2 c>A E>Ac>A|"A"a2 g>a "D"f>a "A"e>c|"Bm"(3def "E7"(3efg "A"(
3aed (3cBA|
"Bm"(3Bcd (3cBA "E"(3GFE  (3dcB|!
"A"A2 c>A E>Ac>A|"A"a2 g>"D"a f>a "A"e>c|"Bm"(3def "E7"(3efg
 "A"(3aed (3cBA|"E7"(3GFE (3dcB "A"A3||!
"E7"g|"A"a2 e>a c>aA>a|"A"c/B/A e>g a>Ac<a|"Bm"b2 f>b d>b B>b|"Bm"d/c/B
f
>B b>B d<b|!
"A"a2 e>a c>aA>a|"A"c/B/A e>g a>ec>A|"Bm"(3def
"E7"(3efg "A"(3aed (3cBA|"E7"(3GFE (3dcB "A"A3||
